X: 38607
T: Stonewaller, The
R: polka
M: 2/4
K: Eminor
|:Bd eB|A2 Bd|eB A2|AG E2|Bd eB|A2 BA|GA AG|A2 A2|
Bd eB|A2 Bd|eB A2|AG E2|ea ae|ge da|ae ge|dB AG:|
|:eg g2|ge dB|G2 AG|GA BG|eg gf|ge dB|GA AG|A2 A2|
eg gf|ge dB|GA AG|GA BG|ea ae|ge da|ae ge|dB AG:|

